X:26
T:Cristina Pato's Muineira 1
R:jig
M:6/8
L:1/8
K:Dmaj
|:"D"DAA "D"DAA|"Em"GFG "Em"E2F|"Em"GFG "Em"EFG|"D"F/2G/2AF "D"DAA|
"D"DAA "D"DAA|"Em"GFG "Em"E2F|"G"GFA "Em"GFE|1 "D"D4 AA:|2"Bm"D3 "Bm"DED||
"Em"B4  FG  |"D"A4   EF|"Em"G2 G "Em"GFG|"D"A3 "Bm"DED|
"Em"B4   FG |"D"A4   EF|"Em"G2 G "Em"GFE|"Bm"D3 "Bm"DED|
"G"B2 F "Em"G2 {d}(A|"D"A4)EF|"Em"G2 G "Em"GFG|"D"A3 "Bm"DED|
"G"B2 F "Em"G2 {d}(A|"D"A4)EF |"Em"G2 G "Em"GFE|"Bm"D3 "Bm"BdB||
